image/facebook.svg

<svg width="16" height="16" viewBox="0 0 16 16" fill="none" xmlns="http://www.w3.org/2000/svg">
<path d="M5.72571 5.46306H3.81714V8.00782H5.72571V15.6421H8.90667V8.00782H11.2236L11.4514 5.46306H8.90667V4.40249C8.90667 3.79525 9.02857 3.55449 9.616 3.55449H11.4514V0.373535H9.02857C6.74133 0.373535 5.72571 1.38077 5.72571 3.30992V5.46306Z" fill="black"/>
</svg>

<svg xmlns="http://www.w3.org/2000/svg" width="16" height="16" fill="none"><path fill="#000" d="M5.726 5.463H3.817v2.545h1.909v7.634h3.18V8.008h2.318l.227-2.545H8.907v-1.06c0-.608.122-.849.709-.849h1.835V.374H9.03C6.74.374 5.726 1.38 5.726 3.31v2.153Z"/></svg>
